build/Karasa-Jaga/scalable/actions/contact-new-symbolic.svg

<svg height="16" width="16" xmlns="http://www.w3.org/2000/svg"><g fill="#bebebe" transform="translate(0 -6)"><path d="m7.6074219.890625c-.218831 0-.46027-.00615-.65625.03125-.448743.084485-.752513.303241-.90625.46875l-.03125.0625c-.191132.028392-.518098.070728-.78125.28125-.354563.283235-.65625.7767672-.65625 1.65625 0 .623256.03125.991608.03125 1.21875 0 .254842-.2272348.279265-.28125.5625-.07686.398191.036798 1.327658.28125 1.78125.1502739.277695.474901.406255.6875.65625.218139.254842.4375.754423.4375 1.09375 0 .508299-.566682 1.597571-1.8125 2.21875-1.7070278.85109-2.53125 1.221371-2.53125 2.40625h6.7148437a4.4781046 4.4781046 0 0 1 -.0820312-.828125 4.4781046 4.4781046 0 0 1 1.5546875-3.3847656c-.0003543-.0020256.0007603-.0037378 0-.0058594-.0001692-.0077-.0001769-.02357 0-.03125-.047263-.140335-.09375-.272223-.09375-.375 0-.339327.218668-.838907.4375-1.09375.2139851-.249995.5372261-.378555.6875001-.65625.243763-.453591.358119-1.383059.28125-1.78125-.05401-.283927-.28125-.30835-.28125-.5625 0-.227142.0625-.594802.0625-1.21875 0-.8794827-.359601-1.3414213-.8125001-1.75-.4085776-.3691057-1.2153949-.75-2.25-.75zm-1.5625.5.0625-.09375c0-.089334.054367-.1967642.125-.28125l-.125-.09375c-.0651.078253-.103535.1613593-.125.25-.0831-.029086-.1732191-.03125-.28125-.03125v.15625c.128114 0 .230784.016102.3125.0625z" transform="translate(0 6)"/><path d="m12.5 15c-1.933 0-3.5 1.567-3.5 3.5s1.567 3.5 3.5 3.5 3.5-1.567 3.5-3.5-1.567-3.5-3.5-3.5zm-.5 1h1v2h2v1h-2v2h-1v-2h-2v-1h2z" fill-rule="evenodd"/></g></svg>

<?xml version="1.0" encoding="UTF-8" standalone="no"?>
<!-- Created with Inkscape (http://www.inkscape.org/) -->

<svg
   xmlns:dc="http://purl.org/dc/elements/1.1/"
   xmlns:cc="http://creativecommons.org/ns#"
   xmlns:rdf="http://www.w3.org/1999/02/22-rdf-syntax-ns#"
   xmlns:svg="http://www.w3.org/2000/svg"
   xmlns="http://www.w3.org/2000/svg"
   xmlns:xlink="http://www.w3.org/1999/xlink"
   xmlns:sodipodi="http://sodipodi.sourceforge.net/DTD/sodipodi-0.dtd"
   xmlns:inkscape="http://www.inkscape.org/namespaces/inkscape"
   width="16"
   height="16"
   id="svg2"
   sodipodi:version="0.32"
   inkscape:version="0.92.2 (unknown)"
   version="1.0"
   sodipodi:docname="contact-new-symbolic.svg"
   inkscape:output_extension="org.inkscape.output.svg.inkscape"
   style="display:inline">
  <defs
     id="defs4">
    <inkscape:perspective
       sodipodi:type="inkscape:persp3d"
       inkscape:vp_x="0 : 11 : 1"
       inkscape:vp_y="0 : 1000 : 0"
       inkscape:vp_z="22 : 11 : 1"
       inkscape:persp3d-origin="11 : 7.3333333 : 1"
       id="perspective29" />
    <linearGradient
       id="linearGradient4081">
      <stop
         style="stop-color:#aaaaaa;stop-opacity:1;"
         offset="0"
         id="stop4083" />
      <stop
         style="stop-color:#f0f0f0;stop-opacity:1;"
         offset="1"
         id="stop4085" />
    </linearGradient>
    <linearGradient
       inkscape:collect="always"
       xlink:href="#linearGradient4081"
       id="linearGradient3527"
       gradientUnits="userSpaceOnUse"
       gradientTransform="translate(-39,0)"
       x1="6.8391123"
       y1="16.300354"
       x2="6.8391123"
       y2="6.0528178" />
    <linearGradient
       inkscape:collect="always"
       xlink:href="#linearGradient4081"
       id="linearGradient3538"
       gradientUnits="userSpaceOnUse"
       gradientTransform="translate(-39,0)"
       x1="16.5"
       y1="19.542921"
       x2="16.5"
       y2="2.5" />
    <linearGradient
       inkscape:collect="always"
       xlink:href="#linearGradient4081"
       id="linearGradient3540"
       gradientUnits="userSpaceOnUse"
       gradientTransform="translate(-39,0)"
       x1="14.524625"
       y1="17.41902"
       x2="14.524625"
       y2="4.625" />
    <linearGradient
       inkscape:collect="always"
       xlink:href="#linearGradient4081"
       id="linearGradient3542"
       gradientUnits="userSpaceOnUse"
       gradientTransform="translate(-39,0)"
       x1="10.50519"
       y1="15.28125"
       x2="10.50519"
       y2="6.7458849" />
    <linearGradient
       inkscape:collect="always"
       xlink:href="#linearGradient4081"
       id="linearGradient3266"
       x1="9"
       y1="4.5"
       x2="14"
       y2="4.5"
       gradientUnits="userSpaceOnUse"
       gradientTransform="matrix(0,-1,1,0,6,16)" />
    <linearGradient
       inkscape:collect="always"
       xlink:href="#linearGradient4081"
       id="linearGradient3274"
       x1="11.984375"
       y1="20"
       x2="11.984375"
       y2="7.96875"
       gradientUnits="userSpaceOnUse" />
    <linearGradient
       inkscape:collect="always"
       xlink:href="#linearGradient4081"
       id="linearGradient3280"
       gradientUnits="userSpaceOnUse"
       gradientTransform="matrix(0,-1,1,0,7,16)"
       x1="9"
       y1="4.5"
       x2="14"
       y2="4.5" />
    <linearGradient
       inkscape:collect="always"
       xlink:href="#linearGradient4081"
       id="linearGradient3287"
       gradientUnits="userSpaceOnUse"
       gradientTransform="matrix(0,-1,1,0,7,16)"
       x1="9"
       y1="4.5"
       x2="14"
       y2="4.5" />
    <linearGradient
       inkscape:collect="always"
       xlink:href="#linearGradient4081"
       id="linearGradient3293"
       gradientUnits="userSpaceOnUse"
       x1="11.984375"
       y1="20"
       x2="11.984375"
       y2="7.96875"
       gradientTransform="translate(-1,0)" />
    <inkscape:perspective
       id="perspective4374"
       inkscape:persp3d-origin="0.5 : 0.33333333 : 1"
       inkscape:vp_z="1 : 0.5 : 1"
       inkscape:vp_y="0 : 1000 : 0"
       inkscape:vp_x="0 : 0.5 : 1"
       sodipodi:type="inkscape:persp3d" />
    <linearGradient
       inkscape:collect="always"
       xlink:href="#StandardGradient-1"
       id="linearGradient3833-8"
       x1="54"
       y1="3.5"
       x2="59"
       y2="3.5"
       gradientUnits="userSpaceOnUse"
       gradientTransform="translate(-53,53)" />
    <linearGradient
       id="StandardGradient-1"
       gradientTransform="matrix(0.9984539,0,0,0.9984539,-0.0459776,0.05767558)"
       x1="10.710332"
       y1="1.9963325"
       x2="10.710332"
       y2="18.974037"
       gradientUnits="userSpaceOnUse">
      <stop
         style="stop-color:#000000;stop-opacity:0.86274511;"
         offset="0"
         id="stop3277-4" />
      <stop
         style="stop-color:#000000;stop-opacity:0.47058824;"
         offset="1"
         id="stop3279-3" />
    </linearGradient>
    <linearGradient
       y2="3.5"
       x2="59"
       y1="3.5"
       x1="54"
       gradientTransform="translate(-45,53)"
       gradientUnits="userSpaceOnUse"
       id="linearGradient3829-0"
       xlink:href="#SpecificGradient-5"
       inkscape:collect="always" />
    <linearGradient
       id="SpecificGradient-5"
       x1="10.761708"
       y1="3.9999998"
       x2="10.761708"
       y2="18.011395"
       gradientUnits="userSpaceOnUse">
      <stop
         style="stop-color:#a50000;stop-opacity:1;"
         offset="0"
         id="stop3292-8" />
      <stop
         style="stop-color:#e73800;stop-opacity:1;"
         offset="1"
         id="stop3294-0" />
    </linearGradient>
    <linearGradient
       inkscape:collect="always"
       xlink:href="#StandardGradient-1"
       id="linearGradient3659"
       gradientUnits="userSpaceOnUse"
       x1="-15.94624"
       y1="-0.66848934"
       x2="-15.94624"
       y2="17.008953"
       gradientTransform="matrix(1.0182469,0,0,1.0182469,24.23721,3.6806872)" />
    <linearGradient
       inkscape:collect="always"
       xlink:href="#StandardGradient-1"
       id="linearGradient3663"
       gradientUnits="userSpaceOnUse"
       x1="-15.94624"
       y1="-0.66848934"
       x2="-15.94624"
       y2="17.008953" />
    <linearGradient
       inkscape:collect="always"
       xlink:href="#StandardGradient-1"
       id="linearGradient3668"
       gradientUnits="userSpaceOnUse"
       x1="-15.94624"
       y1="-0.66848934"
       x2="-15.94624"
       y2="17.008953" />
    <clipPath
       clipPathUnits="userSpaceOnUse"
       id="clipPath3673">
      <path
         style="fill:#ff00ff;fill-opacity:1;stroke:none;display:inline"
         d="m -23.802881,-2.6326495 0,21.6057615 21.6057616,0 0,-21.6057615 -21.6057616,0 z M -13,-0.66848934 l 2.27106,2.85417024 3.5907302,-0.7365601 -0.09207,3.6828003 3.1917603,1.7186402 -2.4245102,2.7621002 1.3503601,3.3759005 -3.6214203,0.55242 -1.1355301,3.46797 -3.13038,-1.90278 -3.130381,1.90278 -1.13553,-3.46797 -3.62142,-0.55242 1.35036,-3.3759005 -2.42451,-2.7621002 3.19176,-1.7186402 -0.09207,-3.6828003 3.590731,0.7365601 L -13,-0.66848934 z"
         id="path3675"
         inkscape:connector-curvature="0" />
    </clipPath>
    <linearGradient
       inkscape:collect="always"
       xlink:href="#StandardGradient-1"
       id="linearGradient5781"
       gradientUnits="userSpaceOnUse"
       x1="-15.94624"
       y1="-0.66848934"
       x2="-15.94624"
       y2="17.008953" />
    <linearGradient
       inkscape:collect="always"
       xlink:href="#StandardGradient-1"
       id="linearGradient5785"
       gradientUnits="userSpaceOnUse"
       x1="-15.94624"
       y1="-0.66848934"
       x2="-15.94624"
       y2="17.008953"
       gradientTransform="matrix(1.0182469,0,0,1.0182469,24.23721,2.6806872)" />
  </defs>
  <sodipodi:namedview
     id="base"
     pagecolor="#ffffff"
     bordercolor="#e7e7e7"
     borderopacity="1"
     inkscape:pageopacity="0.0"
     inkscape:pageshadow="2"
     inkscape:zoom="5.6600002"
     inkscape:cx="3.2060817"
     inkscape:cy="-4.7093174"
     inkscape:document-units="px"
     inkscape:current-layer="layer1"
     showgrid="false"
     inkscape:showpageshadow="false"
     showguides="false"
     inkscape:guide-bbox="true"
     inkscape:window-width="1366"
     inkscape:window-height="706"
     inkscape:window-x="0"
     inkscape:window-y="0"
     inkscape:window-maximized="1">
    <sodipodi:guide
       orientation="1,0"
       position="0,112"
       id="guide2383"
       inkscape:locked="false" />
    <sodipodi:guide
       orientation="0,1"
       position="26.278146,128"
       id="guide2385"
       inkscape:locked="false" />
    <sodipodi:guide
       orientation="1,0"
       position="128,54.082119"
       id="guide2387"
       inkscape:locked="false" />
    <sodipodi:guide
       orientation="0,1"
       position="78.156291,0"
       id="guide2389"
       inkscape:locked="false" />
    <sodipodi:guide
       orientation="0,1"
       position="60.863576,64.084768"
       id="guide2391"
       inkscape:locked="false" />
    <inkscape:grid
       type="xygrid"
       id="grid3672"
       visible="true"
       enabled="true"
       empspacing="8"
       snapvisiblegridlinesonly="true" />
  </sodipodi:namedview>
  <metadata
     id="metadata7">
    <rdf:RDF>
      <cc:Work
         rdf:about="">
        <dc:format>image/svg+xml</dc:format>
        <dc:type
           rdf:resource="http://purl.org/dc/dcmitype/StillImage" />
        <dc:title></dc:title>
      </cc:Work>
    </rdf:RDF>
  </metadata>
  <g
     inkscape:label="Icon"
     inkscape:groupmode="layer"
     id="layer1"
     style="display:inline"
     transform="translate(0,-6)">
    <path
       style="fill:#bebebe;fill-opacity:1"
       d="M 7.6074219 0.890625 C 7.3885909 0.890625 7.1471519 0.884475 6.9511719 0.921875 C 6.5024289 1.00636 6.1986589 1.225116 6.0449219 1.390625 L 6.0136719 1.453125 C 5.8225399 1.481517 5.4955739 1.523853 5.2324219 1.734375 C 4.8778589 2.01761 4.5761719 2.5111422 4.5761719 3.390625 C 4.5761719 4.013881 4.6074219 4.382233 4.6074219 4.609375 C 4.6074219 4.864217 4.3801871 4.88864 4.3261719 5.171875 C 4.2493119 5.570066 4.3629699 6.499533 4.6074219 6.953125 C 4.7576958 7.23082 5.0823229 7.35938 5.2949219 7.609375 C 5.5130609 7.864217 5.7324219 8.363798 5.7324219 8.703125 C 5.7324219 9.211424 5.1657399 10.300696 3.9199219 10.921875 C 2.2128941 11.772965 1.3886719 12.143246 1.3886719 13.328125 L 8.1035156 13.328125 A 4.4781046 4.4781046 0 0 1 8.0214844 12.5 A 4.4781046 4.4781046 0 0 1 9.5761719 9.1152344 C 9.5758176 9.1132088 9.5769322 9.1114966 9.5761719 9.109375 C 9.5760027 9.101675 9.575995 9.085805 9.5761719 9.078125 C 9.5289089 8.93779 9.4824219 8.805902 9.4824219 8.703125 C 9.4824219 8.363798 9.7010899 7.864218 9.9199219 7.609375 C 10.133907 7.35938 10.457148 7.23082 10.607422 6.953125 C 10.851185 6.499534 10.965541 5.570066 10.888672 5.171875 C 10.834662 4.887948 10.607422 4.863525 10.607422 4.609375 C 10.607422 4.382233 10.669922 4.014573 10.669922 3.390625 C 10.669922 2.5111423 10.310321 2.0492037 9.8574219 1.640625 C 9.4488443 1.2715193 8.642027 0.890625 7.6074219 0.890625 z M 6.0449219 1.390625 L 6.1074219 1.296875 C 6.1074219 1.207541 6.1617889 1.1001108 6.2324219 1.015625 L 6.1074219 0.921875 C 6.0423219 1.000128 6.0038869 1.0832343 5.9824219 1.171875 C 5.8993219 1.142789 5.8092028 1.140625 5.7011719 1.140625 L 5.7011719 1.296875 C 5.8292859 1.296875 5.9319559 1.312977 6.0136719 1.359375 L 6.0449219 1.390625 z "
       transform="translate(0,6)"
       id="path3424" />
    <path
       style="color:#000000;clip-rule:nonzero;display:inline;overflow:visible;visibility:visible;opacity:1;isolation:auto;mix-blend-mode:normal;color-interpolation:sRGB;color-interpolation-filters:linearRGB;solid-color:#000000;solid-opacity:1;fill:#bebebe;fill-opacity:1;fill-rule:evenodd;stroke:none;stroke-width:1;stroke-linecap:butt;stroke-linejoin:miter;stroke-miterlimit:4;stroke-dasharray:none;stroke-dashoffset:0;stroke-opacity:1;color-rendering:auto;image-rendering:auto;shape-rendering:auto;text-rendering:auto;enable-background:accumulate"
       sodipodi:nodetypes="sssssccccccccccccc"
       id="path6731"
       d="M 12.5,15 C 10.567,15 9,16.567 9,18.5 9,20.433 10.567,22 12.5,22 14.433,22 16,20.433 16,18.5 16,16.567 14.433,15 12.5,15 Z M 12,16 h 1 v 2 h 2 v 1 h -2 v 2 h -1 v -2 h -2 v -1 h 2 z"
       inkscape:connector-curvature="0" />
  </g>
</svg>
